src/assets/outline/EyeSlash.svg

<svg width="24" height="24" viewBox="0 0 24 24"  xmlns="http://www.w3.org/2000/svg">
<path d="M9.46992 15.2799C9.27992 15.2799 9.08992 15.2099 8.93992 15.0599C8.11992 14.2399 7.66992 13.1499 7.66992 11.9999C7.66992 9.60992 9.60992 7.66992 11.9999 7.66992C13.1499 7.66992 14.2399 8.11992 15.0599 8.93992C15.1999 9.07992 15.2799 9.26992 15.2799 9.46992C15.2799 9.66992 15.1999 9.85992 15.0599 9.99992L9.99992 15.0599C9.84992 15.2099 9.65992 15.2799 9.46992 15.2799ZM11.9999 9.16992C10.4399 9.16992 9.16992 10.4399 9.16992 11.9999C9.16992 12.4999 9.29992 12.9799 9.53992 13.3999L13.3999 9.53992C12.9799 9.29992 12.4999 9.16992 11.9999 9.16992Z" />
<path d="M5.59984 18.51C5.42984 18.51 5.24984 18.45 5.10984 18.33C4.03984 17.42 3.07984 16.3 2.25984 15C1.19984 13.35 1.19984 10.66 2.25984 8.99998C4.69984 5.17998 8.24984 2.97998 11.9998 2.97998C14.1998 2.97998 16.3698 3.73998 18.2698 5.16998C18.5998 5.41998 18.6698 5.88998 18.4198 6.21998C18.1698 6.54998 17.6998 6.61998 17.3698 6.36998C15.7298 5.12998 13.8698 4.47998 11.9998 4.47998C8.76984 4.47998 5.67984 6.41998 3.51984 9.80998C2.76984 10.98 2.76984 13.02 3.51984 14.19C4.26984 15.36 5.12984 16.37 6.07984 17.19C6.38984 17.46 6.42984 17.93 6.15984 18.25C6.01984 18.42 5.80984 18.51 5.59984 18.51Z" />
<path d="M12.0001 21.02C10.6701 21.02 9.37006 20.75 8.12006 20.22C7.74006 20.06 7.56006 19.62 7.72006 19.24C7.88006 18.86 8.32006 18.68 8.70006 18.84C9.76006 19.29 10.8701 19.52 11.9901 19.52C15.2201 19.52 18.3101 17.58 20.4701 14.19C21.2201 13.02 21.2201 10.98 20.4701 9.81C20.1601 9.32 19.8201 8.85 19.4601 8.41C19.2001 8.09 19.2501 7.62 19.5701 7.35C19.8901 7.09 20.3601 7.13 20.6301 7.46C21.0201 7.94 21.4001 8.46 21.7401 9C22.8001 10.65 22.8001 13.34 21.7401 15C19.3001 18.82 15.7501 21.02 12.0001 21.02Z" />
<path d="M12.6901 16.2699C12.3401 16.2699 12.0201 16.0199 11.9501 15.6599C11.8701 15.2499 12.1401 14.8599 12.5501 14.7899C13.6501 14.5899 14.5701 13.6699 14.7701 12.5699C14.8501 12.1599 15.2401 11.8999 15.6501 11.9699C16.0601 12.0499 16.3301 12.4399 16.2501 12.8499C15.9301 14.5799 14.5501 15.9499 12.8301 16.2699C12.7801 16.2599 12.7401 16.2699 12.6901 16.2699Z" />
<path d="M1.99994 22.7502C1.80994 22.7502 1.61994 22.6802 1.46994 22.5302C1.17994 22.2402 1.17994 21.7602 1.46994 21.4702L8.93994 14.0002C9.22994 13.7102 9.70994 13.7102 9.99994 14.0002C10.2899 14.2902 10.2899 14.7702 9.99994 15.0602L2.52994 22.5302C2.37994 22.6802 2.18994 22.7502 1.99994 22.7502Z" />
<path d="M14.5302 10.2199C14.3402 10.2199 14.1502 10.1499 14.0002 9.99994C13.7102 9.70994 13.7102 9.22994 14.0002 8.93994L21.4702 1.46994C21.7602 1.17994 22.2402 1.17994 22.5302 1.46994C22.8202 1.75994 22.8202 2.23994 22.5302 2.52994L15.0602 9.99994C14.9102 10.1499 14.7202 10.2199 14.5302 10.2199Z" />
</svg>

<?xml version="1.0" encoding="UTF-8"?>
<svg width="24" height="24" viewBox="0 0 24 24" xmlns="http://www.w3.org/2000/svg">
 <path d="m9.4699 15.28c-0.19 0-0.38-0.07-0.53-0.22-0.82-0.82-1.27-1.91-1.27-3.06 0-2.39 1.94-4.33 4.33-4.33 1.15 0 2.24 0.45 3.06 1.27 0.14 0.14 0.22 0.33 0.22 0.53s-0.08 0.39-0.22 0.53l-5.06 5.06c-0.15 0.15-0.34 0.22-0.53 0.22zm2.53-6.11c-1.56 0-2.83 1.27-2.83 2.83 0 0.5 0.13 0.98 0.37 1.4l3.86-3.86c-0.42-0.24-0.9-0.37-1.4-0.37z"/>
 <path d="m5.5998 18.51c-0.17 0-0.35-0.06-0.49-0.18-1.07-0.91-2.03-2.03-2.85-3.33-1.06-1.65-1.06-4.34 0-6 2.44-3.82 5.99-6.02 9.74-6.02 2.2 0 4.37 0.76 6.27 2.19 0.33 0.25 0.4 0.72 0.15 1.05s-0.72 0.4-1.05 0.15c-1.64-1.24-3.5-1.89-5.37-1.89-3.23 0-6.32 1.94-8.48 5.33-0.75 1.17-0.75 3.21 0 4.38s1.61 2.18 2.56 3c0.31 0.27 0.35 0.74 0.08 1.06-0.14 0.17-0.35 0.26-0.56 0.26z"/>
 <path d="m12 21.02c-1.33 0-2.63-0.27-3.88-0.8-0.38-0.16-0.56-0.6-0.4-0.98s0.6-0.56 0.98-0.4c1.06 0.45 2.17 0.68 3.29 0.68 3.23 0 6.32-1.94 8.48-5.33 0.75-1.17 0.75-3.21 0-4.38-0.31-0.49-0.65-0.96-1.01-1.4-0.26-0.32-0.21-0.79 0.11-1.06 0.32-0.26 0.79-0.22 1.06 0.11 0.39 0.48 0.77 1 1.11 1.54 1.06 1.65 1.06 4.34 0 6-2.44 3.82-5.99 6.02-9.74 6.02z"/>
 <path d="m12.69 16.27c-0.35 0-0.67-0.25-0.74-0.61-0.08-0.41 0.19-0.8 0.6-0.87 1.1-0.2 2.02-1.12 2.22-2.22 0.08-0.41 0.47-0.67 0.88-0.6 0.41 0.08 0.68 0.47 0.6 0.88-0.32 1.73-1.7 3.1-3.42 3.42-0.05-0.01-0.09 0-0.14 0z"/>
 <path d="m1.9999 22.75c-0.19 0-0.38-0.07-0.53-0.22-0.29-0.29-0.29-0.77 0-1.06l7.47-7.47c0.29-0.29 0.77-0.29 1.06 0 0.28996 0.29 0.28996 0.77 0 1.06l-7.47 7.47c-0.15 0.15-0.34 0.22-0.53 0.22z"/>
 <path d="m14.53 10.22c-0.19 0-0.38-0.07-0.53-0.21996-0.29-0.29-0.29-0.77 0-1.06l7.47-7.47c0.29-0.29 0.77-0.29 1.06 0s0.29 0.77 0 1.06l-7.47 7.47c-0.15 0.14996-0.34 0.21996-0.53 0.21996z"/>
</svg>
